public/icons/icon/font-sans.svg

<svg width="30" height="30" viewBox="0 0 30 30" fill="none" xmlns="http://www.w3.org/2000/svg">
<path d="M12.5042 23.9998L11.0838 19.4851H4.79369L3.3987 23.9998H0L5.93505 6.29614H10.0947L15.979 23.9998H12.5042ZM7.98948 9.33976H7.86267L5.60532 16.6191H10.2722L7.98948 9.33976Z" fill="black"/>
<path d="M28.1992 23.9998C27.489 23.9998 26.9226 23.7969 26.4998 23.3911C26.094 22.9684 25.8404 22.4104 25.7389 21.7171H25.5868C25.3669 22.5795 24.9189 23.2305 24.2425 23.6701C23.5661 24.0928 22.7291 24.3042 21.7315 24.3042C20.3788 24.3042 19.3389 23.9491 18.6118 23.2389C17.8847 22.5287 17.5212 21.5818 17.5212 20.3982C17.5212 19.0286 18.0115 18.0141 18.9923 17.3546C19.973 16.6782 21.368 16.3401 23.1772 16.3401H25.4346V15.3763C25.4346 14.6323 25.2401 14.0574 24.8512 13.6515C24.4623 13.2457 23.8367 13.0428 22.9743 13.0428C22.2134 13.0428 21.5962 13.2119 21.1228 13.5501C20.6663 13.8714 20.2773 14.2603 19.9561 14.7168L18.0285 12.9921C18.5188 12.2312 19.1698 11.6225 19.9814 11.1659C20.7931 10.6925 21.8668 10.4557 23.2026 10.4557C24.9949 10.4557 26.3561 10.8616 27.2861 11.6732C28.2161 12.4848 28.6811 13.6515 28.6811 15.1733V21.4128H30V23.9998H28.1992ZM22.8221 21.9454C23.5492 21.9454 24.1664 21.7848 24.6737 21.4635C25.1809 21.1422 25.4346 20.6688 25.4346 20.0431V18.293H23.3548C21.6639 18.293 20.8184 18.8341 20.8184 19.9163V20.3475C20.8184 20.8886 20.9875 21.2944 21.3257 21.5649C21.6808 21.8186 22.1796 21.9454 22.8221 21.9454Z" fill="black"/>
</svg>

<svg xmlns="http://www.w3.org/2000/svg" width="30" height="30" fill="none"><path fill="#000" d="m12.504 24-1.42-4.515h-6.29L3.399 24H0L5.935 6.296h4.16L15.979 24h-3.475ZM7.99 9.34h-.126l-2.258 7.28h4.667L7.99 9.34ZM28.2 24c-.711 0-1.277-.203-1.7-.609-.406-.423-.66-.98-.761-1.674h-.152c-.22.863-.668 1.514-1.345 1.953-.676.423-1.513.634-2.51.634-1.353 0-2.393-.355-3.12-1.065-.727-.71-1.09-1.657-1.09-2.84 0-1.37.49-2.385 1.47-3.044.981-.677 2.376-1.015 4.185-1.015h2.258v-.964c0-.744-.195-1.319-.584-1.724-.389-.406-1.014-.61-1.877-.61-.76 0-1.378.17-1.851.508a4.78 4.78 0 0 0-1.167 1.167l-1.927-1.725a5.477 5.477 0 0 1 1.952-1.826c.812-.473 1.886-.71 3.222-.71 1.792 0 3.153.406 4.083 1.217.93.812 1.395 1.979 1.395 3.5v6.24H30V24h-1.8Zm-5.378-2.055c.727 0 1.344-.16 1.852-.482.507-.32.76-.794.76-1.42v-1.75h-2.08c-1.69 0-2.536.541-2.536 1.623v.431c0 .542.17.947.508 1.218.355.254.854.38 1.496.38Z"/></svg>
